build/img/svg/answer-icon.svg

<svg width="48" height="40" viewBox="0 0 48 40" fill="none" xmlns="http://www.w3.org/2000/svg">
<path d="M31 20V22" stroke="#0061D9" stroke-width="2" stroke-miterlimit="10"/>
<path d="M31 8V18" stroke="#0061D9" stroke-width="2" stroke-miterlimit="10"/>
<path d="M30.5 1C39.613 1 47 7.044 47 14.5C47 18.279 45.098 21.69 42.04 24.141C41.971 26.006 42.142 28.771 42.944 31.048C43.243 31.898 42.404 32.736 41.567 32.403C38.845 31.323 36.423 29.283 34.695 27.542C33.353 27.831 31.952 28 30.499 28C21.386 28 13.999 21.956 13.999 14.5C14 7.044 21.387 1 30.5 1Z" stroke="#0061D9" stroke-width="2" stroke-miterlimit="10"/>
<path d="M26.3672 31.0251C23.6872 32.8831 20.2482 34.0001 16.4992 34.0001C15.1712 34.0001 13.8902 33.8451 12.6612 33.5821C10.9972 35.3801 8.83219 37.3111 6.43219 38.3931C5.59419 38.7711 4.75624 37.8181 5.05524 36.8521C5.68324 34.8251 5.9212 32.4651 5.9632 30.5161C2.9172 28.1421 0.999207 24.7631 0.999207 21.0001C0.999207 15.2801 5.40419 10.4231 11.5232 8.68408" stroke="#0061D9" stroke-width="2" stroke-miterlimit="10" stroke-linecap="round"/>
</svg>

<svg width="48" height="40" fill="none" xmlns="http://www.w3.org/2000/svg"><path d="M31 20v2m0-14v10m-.5-17C39.613 1 47 7.044 47 14.5c0 3.779-1.902 7.19-4.96 9.641-.069 1.865.102 4.63.904 6.907.299.85-.54 1.688-1.377 1.355-2.722-1.08-5.144-3.12-6.872-4.861a19.892 19.892 0 01-4.196.458c-9.113 0-16.5-6.044-16.5-13.5C14 7.044 21.387 1 30.5 1z" stroke="#0061D9" stroke-width="2" stroke-miterlimit="10"/><path d="M26.367 31.025C23.687 32.883 20.248 34 16.5 34c-1.328 0-2.609-.155-3.838-.418-1.664 1.798-3.829 3.73-6.229 4.811-.838.378-1.676-.575-1.377-1.54.628-2.028.866-4.388.908-6.337C2.917 28.142 1 24.763 1 21c0-5.72 4.405-10.577 10.524-12.316" stroke="#0061D9" stroke-width="2" stroke-miterlimit="10" stroke-linecap="round"/></svg>
